X:1
T:Title
%%score { 1 | 2 }
L:1/8
M:6/8
K:Ab
V:1 treble nm="Grand Piano"
V:2 bass 
V:1
 z3 z2[Q:1/4=100] [CE] | [CE]2 [CE] [DF]2 [CE] | [CA]3 [A,CE]2 [CEA] | G2 B F2 G | %4
[M:5/8] [DF]3 [CE]2 |[M:1/8] [CE] |[M:3/4] [CE]2 [CE] [DF]2 [CE] | [CA]3 [CE]2 [Ec] | B2 F G2 A | %9
[M:5/8] B-B- B3 |[M:1/8] c |[M:3/4] [Gd]2 [Gd] [Ec]2 [EB] | [Ec]2 [DB] [CA]2 [EG] | F2 A E2 c | %14
 B2 A [CA]3 | [Ec]2 [Ec] [Ec]2 [Ec] | [Ec]3 .[CA]3 | [Gd]2 [Gd] [Gd]2 [Gd] | [Gd]3 .[EB]3 | %19
 c2 e c2 B | [FA]3 .F3 | %21
 E2 c [EAc]2 [DGB][Q:1/4=98][Q:1/4=97][Q:1/4=95][Q:1/4=94][Q:1/4=92][Q:1/4=91][Q:1/4=89][Q:1/4=88][Q:1/4=86][Q:1/4=84][Q:1/4=83][Q:1/4=81][Q:1/4=80][Q:1/4=78][Q:1/4=77] | %22
[M:5/8] [CEA]-[CEA]- [CEA]3 |] %23
V:2
 z3 z2 [A,,A,] | [A,,A,]2 [A,,A,] [A,,A,]2 [A,,A,] | [A,,E,]3 A,,2 A,, | %3
 [E,B,D]2 [E,G,D] [E,A,D]2 [E,B,D] |[M:5/8] [A,,A,]-[A,,A,]- [A,,A,]3 |[M:1/8] [A,,A,] | %6
[M:3/4] [A,,A,]2 [A,,A,] [A,,A,]2 [A,,A,] | [A,,E,]3 [A,,A,]2 [A,,A,] | %8
 [E,G,E]2 [A,B,=D] [G,B,E]2 [F,A,D] |[M:5/8] [E,G,D]-[E,G,D]- [E,G,D]3 |[M:1/8] [E,A,E] | %11
[M:3/4] [E,B,]2 [E,B,] [E,A,]2 [E,G,] | [A,,A,]2 [A,,E,] [A,,E,]2 [C,A,] | %13
 [D,A,D]2 [D,F,D] [E,A,C]2 [E,A,E] | [E,G,D]2 [E,A,C] [A,,A,]3 | %15
 [A,,A,]2 [A,,A,] [A,,A,]2 [A,,A,] | [A,,A,]3 .[A,,A,]3 | [E,B,]2 [E,B,] [E,B,]2 [E,B,] | %18
 [E,B,]3 .[E,G,]3 | [A,E]2 [A,CA] [A,EA]2[K:bass] [A,CE] | [D,D]3 .[D,A,D]3 | %21
 [E,A,C]2 [E,A,E] E,2 E, |[M:5/8] A,,-A,,- A,,3 |] %23

